X: 591
T: My Little Bag That Was Stolen   #2
T: mo \.malin a \.bi goid\.gte uaim
R: reel
%S: s:2 b:12(6+6)
B: O'Neill's 1850 #591
O: F.O'Neill
Z: John B. Walsh (walsh@math.ubc.ca)
N: Compacted via repeats and multiple endings [JC]
N: Some of the the B2-B notes are B3 notes; play them as you like, with your favorite ornaments.
Q: "Briskly."
M: C
L: 1/8
K: G
"^A"|: DGGA B2AG | B2-Bd cAA2 |1 DGGA B2AG | GBAG FDDC :|2 AGGA B2((3AGE) | GBAG FDD2 Hy|]
"^B"|: dddB c2cA | B2-Bd cAA2 |1 defd c2AF | GBAG FDD2 :|2 defd c2((3AGF) | GBAG FDDC |]
